X:1
T:Title
%%score { ( 1 3 5 ) | ( 2 4 6 ) }
L:1/8
M:9/8
K:C
V:1 treble nm="Grand Piano"
V:3 treble 
V:5 treble 
V:2 bass 
V:4 bass 
V:6 bass 
V:1
 z3 z3[Q:1/4=100] [ce]2 [c_e] | [ce]3 [Gc]3 de[cf] | [ce]3 [Gc]3 [Gd]2 [G^c] | %3
 [Gd]3- [Gd]2 [GB] [Ge]2 [Gd] |[M:3/4] [Gc]3 G3 |[M:3/8] [ce]2 [c_e] |[M:9/8] [ce]3 [Gc]3 de[cf] | %7
 [ce]3 [Gc]3 [Gc]2 [ce] | [Bd]3- [Bd]2 [Bd] d-[Bd][cd] |[M:3/4] [Bd]6 |[M:3/8] f2 e | %11
[M:9/8] [df]6 .[Be]3[K:bass][K:treble] | [Gc]3[K:bass] G3[K:treble] z3 | %13
 [df]6 .[Be]3[K:bass][K:treble] |[M:3/4] [Gc]6[K:bass] |[M:3/8][K:treble] [ce]2 [c_e] | %16
[M:9/8] [ce]3 [Gc]3 d[ce][cg] | [cg]3 [cf]3 c2 [cd] | [ce]3- [ce]2 [Gc] G-[Gc][Gd] | %19
[M:3/4] [Gc]6 |] %20
V:2
 z3 z3 [C,G,]2 [C,^F,] | z3 z3 .F,3 | [C,G,]3 [C,E,]3 [G,,F,]2 [G,,E,] | %3
 [G,,F,]3- [G,,F,]2 [G,,D,] [G,,F,]2 [G,,F,] |[M:3/4] [C,E,]6 |[M:3/8] [C,G,]2 [C,F,] | %6
[M:9/8] z3 z3 .F,3 | [C,G,]3 [C,E,]3 [C,E,]2 [C,G,] | z3 z3 .^F,3 |[M:3/4] [G,,G,]6 | %10
[M:3/8][K:treble] d2 ^c |[M:9/8][K:bass] [G,,G,]3 z2[K:treble] B[K:bass] .[G,,F,]2 [B,,F,] | %12
 [C,E,]2 C, [C,E,]2 C,[K:treble] d2 ^c | [G,,G,]3 z2[K:treble] B[K:bass] .[G,,F,]2 [B,,F,] | %14
[M:3/4] [C,E,]2 C, C,3 |[M:3/8] [C,G,]2 [C,^F,] |[M:9/8] [C,G,]3 [C,E,]3 F,G,[E,_B,] | %17
 [F,A,]3 [F,A,]3 [F,A,]2 [F,^G,] | G,6 z3 |[M:3/4] [C,E,]6 |] %20
V:3
 x9 | z3 z3 .G3 | x9 | x9 |[M:3/4] x6 |[M:3/8] x3 |[M:9/8] z3 z3 .G3 | x9 | z3 z3 .A3 |[M:3/4] x6 | %10
[M:3/8] x3 |[M:9/8] z3 z2 d z[K:bass] A,,[K:treble][Gd] | z2[K:bass] E, z2 E,[K:treble] f2 e | %13
 z3 z2 d z[K:bass] A,,[K:treble][Gd] |[M:3/4] z2[K:bass] E, E,3 |[M:3/8][K:treble] x3 |[M:9/8] x9 | %17
 x9 | z3 z3 .B3 |[M:3/4] x6 |] %20
V:4
 x9 | [C,G,]3 [C,E,]3 C,-[C,G,][C,A,] | x9 | x9 |[M:3/4] x6 |[M:3/8] x3 | %6
[M:9/8] [C,G,]3 [C,E,]3 C,-[C,G,][C,A,] | x9 | [D,G,]3- [D,G,]2 [D,G,] D,-[D,G,][D,A,] | %9
[M:3/4] x6 |[M:3/8][K:treble] x3 |[M:9/8][K:bass] z3 G,,3[K:treble][K:bass] z3 | x6[K:treble] x3 | %13
 z3 G,,3[K:treble][K:bass] z3 |[M:3/4] x6 |[M:3/8] x3 |[M:9/8] z3 z3 .C,3 | x9 | %18
 z3 z2 E, D,E,[G,,F,] |[M:3/4] x6 |] %20
V:5
 x9 | x9 | x9 | x9 |[M:3/4] x6 |[M:3/8] x3 |[M:9/8] x9 | x9 | x9 |[M:3/4] x6 |[M:3/8] x3 | %11
[M:9/8] z3 G,3 z3[K:bass][K:treble] | x2[K:bass] x4[K:treble] x3 | z3 G,3 z3[K:bass][K:treble] | %14
[M:3/4] x2[K:bass] x4 |[M:3/8][K:treble] x3 |[M:9/8] x9 | x9 | x9 |[M:3/4] x6 |] %20
V:6
 x9 | x9 | x9 | x9 |[M:3/4] x6 |[M:3/8] x3 |[M:9/8] x9 | x9 | x9 |[M:3/4] x6 | %10
[M:3/8][K:treble] x3 |[M:9/8][K:bass] x5[K:treble] x[K:bass] x3 | x6[K:treble] x3 | %13
 x5[K:treble] x[K:bass] x3 |[M:3/4] x6 |[M:3/8] x3 |[M:9/8] x9 | x9 | z3 G,,3 .G,,3 |[M:3/4] x6 |] %20

